X:192
T:Tailor's Thimble (reel), The 
B:CRE1.125 (Mearacan an Tailliura)
F:file ID: cre.1/192tail_t
N:1:Other sources show this tune as Am rather than Amix as here.
I prefer Am. The audio file for this tune contains both versions.
N:2:Although repeats are shown, I have a feeling that they might
not be correct.
R:reel
Q:180
M:C
K:D
"A modal"
AB|:cAAG A2dB|cA~A2 dBGB|cAAG ABcd|efge dBGB|
cAAG A2dB|cA~A2 dBGB|cAAG ABcd|efge dBGB:|
b2gb a2ga|bage dega|b2gb abg2|bage dBdg|
b2gb abg2|bage dBdg|bg~g2 ag~g2|efge dBGB:|

%%%

